X: 9061
T: Da Galley Watch
R: reel
M: 4/4
K: Dmajor
e|:f2df afdf|e2ce gece|f2df afdf|1 egfe fdde:|2 egfe fddB||
AGFG A2 AB|AGFD E2 E2|DEFG AGF2|1 Agfe fddB:|2 Agfe fdd2||

